img/manaSymbols/purpleu.svg

﻿<?xml version="1.0" encoding="utf-8"?>
<svg width="600" height="600" viewBox="0 0 600 600" version="1.1" xmlns="http://www.w3.org/2000/svg" xml:space="preserve" style="fill-rule: evenodd; clip-rule: evenodd; stroke-linejoin: round; stroke-miterlimit: 2;" preserveAspectRatio="xMidYMid meet" zoomAndPan="magnify" contentScriptType="application/ecmascript" contentStyleType="text/css">
  <circle cx="300" cy="300" r="300" style="fill: rgb(171, 139, 215);" />
  <g transform="matrix(1,0,0,1,-156.29,92.5)">
    <path d="M668.4-4.7c54.3 54.3 87.9 129.3 87.9 212.2 0 165.7-134.3 300-300 300-82.8 0-157.8-33.6-212.1-87.9" style="fill: rgb(170, 224, 250); fill-rule: nonzero;" />
    <path d="M616.6 409.6c-16.2 16.4-36 24.7-59.7 24.7-26.5 0-47.6-9.1-63.1-27.2-14.7-17.3-22.1-39.3-22.1-66.2 0-28.8 12.5-61.7 37.6-98.6 20.5-30.3 44.5-56.8 72.2-79.6-4 18.5-6 31.6-6 39.4 0 17.9 5.6 35.3 16.9 52.3 13.8 20.2 24.4 35.2 31.6 45 11.2 17 16.9 33.6 16.9 49.7 0 23.9-8.1 44.1-24.2 60.6m-.4-92.3c-4.3-9.7-9.4-16.1-15.1-19.2.9 1.7 1.3 4.2 1.3 7.4 0 6.1-1.7 14.7-5.2 25.9l-5.6 17.3c0 10.1 5 15.1 15.1 15.1 10.7 0 16-7.1 16-21.2 0-7.2-2.2-15.6-6.5-25.3" style="fill: rgb(6, 25, 34); fill-rule: nonzero;" />
    <path d="M-52.703 176.592c-.486-.084-2.298-.33-4.028-.545-7.018-.876-15.807-3.768-23.124-7.61-6.187-3.246-7.292-4.45-2.992-3.258 13.726 3.805 31.992-1.64 46.58-13.884 7.953-6.674 12.396-13.07 14.398-20.72 2.89-11.042 1.786-18.535-3.828-26.004-2.158-2.87-4.536-4.726-8.818-6.878-2.944-1.48-3.404-1.82-2.87-2.12.377-.21 1.526-.26 2.802-.12 6.94.764 12.7 3.824 18.424 9.79 6.27 6.534 10.745 15.45 12.162 24.222.54 3.34.457 10.03-.16 12.93-2.764 12.99-11.01 23.936-22.266 29.547-6.198 3.09-12.223 4.492-20.108 4.677-2.91.07-5.688.056-6.173-.028zM-81.63 150.64c-3.6-.272-5.225-.636-9.373-2.1-14.745-5.2-24.403-16.283-27.726-31.816-1-4.683-1.102-14.833-.2-20.014a75.808 75.808 0 0 1 7.55-22.212c3.248-6.187 4.452-7.292 3.26-2.99-3.22 11.61.112 26.466 8.965 39.978 7.095 10.827 15.772 18.18 24.4 20.67 11.476 3.314 19.558 2.276 27.242-3.5 2.87-2.158 4.726-4.536 6.878-8.818 1.515-3.012 1.816-3.413 2.134-2.844.55.983-.283 6.53-1.4 9.327-1.685 4.22-3.645 7.09-7.512 10.996-4.167 4.21-7.63 6.68-12.843 9.164-7.076 3.37-14 4.718-21.376 4.16zm92.166-8.334c.095-.533.448-2.16.784-3.616 1.4-6.054.603-15.13-2-22.754-4.634-13.578-15.35-27.458-25.687-33.27-4.794-2.695-12.937-4.487-19.15-4.215-6.598.29-11.656 2.537-16.487 7.324-2.188 2.167-3.03 3.348-4.655 6.526-1.8 3.522-2.005 3.792-2.224 2.92-.387-1.54.43-6.37 1.58-9.354 4.234-10.98 16.786-20.598 30.736-23.555 8.395-1.778 16.814-.55 25.47 3.717 16.698 8.232 25.4 25.56 23.164 46.13-1.094 10.07-5.22 21.892-10.582 30.326-.69 1.084-1.157.998-.948-.177zM-64.17 115.86c-6.167-.852-12.233-4.3-17.6-10.005-5.99-6.368-10.09-14.46-11.696-23.08-.89-4.777-.572-12.32.7-16.58 3.797-12.727 11.453-21.948 22.57-27.187 14.716-6.935 34.473-5.44 52.404 3.966 6.186 3.245 7.293 4.45 2.992 3.258-9.684-2.685-21.143-.956-32.974 4.974-11.774 5.902-22.232 15.58-26.134 24.188-1.31 2.888-2.67 8.14-3.17 12.252-.876 7.16.803 13.44 5.128 19.193 2.157 2.868 4.536 4.725 8.81 6.873 2.553 1.284 3.36 1.843 2.997 2.073-.5.318-2.06.346-4.026.075z" style="fill: rgb(33, 29, 21); fill-rule: nonzero;" transform="matrix(1.63436,0,0,1.67005,444.927,-87.0378)" />
  </g>
</svg>

<?xml version="1.0" encoding="UTF-8" standalone="no"?>
<!DOCTYPE svg PUBLIC "-//W3C//DTD SVG 1.1//EN" "http://www.w3.org/Graphics/SVG/1.1/DTD/svg11.dtd">
<svg width="600" height="600" viewBox="0 0 600 600" version="1.1" xmlns="http://www.w3.org/2000/svg" xmlns:xlink="http://www.w3.org/1999/xlink" xml:space="preserve" xmlns:serif="http://www.serif.com/" style="fill-rule:evenodd;clip-rule:evenodd;stroke-linejoin:round;stroke-miterlimit:2;">
    <circle cx="300" cy="300" r="300" style="fill:rgb(171,139,215);"/>
    <g transform="matrix(1,0,0,1,-156.29,92.5)">
        <path d="M668.4,-4.7C722.7,49.6 756.3,124.6 756.3,207.5C756.3,373.2 622,507.5 456.3,507.5C373.5,507.5 298.5,473.9 244.2,419.6" style="fill:rgb(170,224,250);fill-rule:nonzero;"/>
        <path d="M616.6,409.6C600.4,426 580.6,434.3 556.9,434.3C530.4,434.3 509.3,425.2 493.8,407.1C479.1,389.8 471.7,367.8 471.7,340.9C471.7,312.1 484.2,279.2 509.3,242.3C529.8,212 553.8,185.5 581.5,162.7C577.5,181.2 575.5,194.3 575.5,202.1C575.5,220 581.1,237.4 592.4,254.4C606.2,274.6 616.8,289.6 624,299.4C635.2,316.4 640.9,333 640.9,349.1C640.9,373 632.8,393.2 616.7,409.7M616.3,317.4C612,307.7 606.9,301.3 601.2,298.2C602.1,299.9 602.5,302.4 602.5,305.6C602.5,311.7 600.8,320.3 597.3,331.5L591.7,348.8C591.7,358.9 596.7,363.9 606.8,363.9C617.5,363.9 622.8,356.8 622.8,342.7C622.8,335.5 620.6,327.1 616.3,317.4" style="fill:rgb(6,25,34);fill-rule:nonzero;"/>
        <g transform="matrix(1.63436,0,0,1.67005,444.927,-87.0378)">
            <path d="M-52.703,176.592C-53.189,176.508 -55.001,176.263 -56.731,176.047C-63.748,175.171 -72.537,172.279 -79.854,168.438C-86.041,165.191 -87.146,163.987 -82.846,165.179C-69.12,168.985 -50.854,163.541 -36.265,151.296C-28.313,144.622 -23.87,138.227 -21.868,130.576C-18.979,119.534 -20.082,112.041 -25.696,104.572C-27.854,101.701 -30.232,99.846 -34.514,97.694C-37.458,96.214 -37.918,95.873 -37.383,95.574C-37.007,95.363 -35.858,95.315 -34.582,95.455C-27.641,96.218 -21.881,99.278 -16.158,105.244C-9.889,111.778 -5.413,120.693 -3.996,129.466C-3.457,132.806 -3.539,139.497 -4.156,142.395C-6.92,155.387 -15.167,166.332 -26.422,171.943C-32.62,175.033 -38.645,176.435 -46.53,176.62C-49.44,176.689 -52.218,176.676 -52.703,176.592ZM-81.631,150.64C-85.231,150.368 -86.855,150.004 -91.003,148.541C-105.748,143.34 -115.406,132.257 -118.729,116.724C-119.73,112.041 -119.832,101.891 -118.93,96.71C-117.581,88.959 -115.028,81.45 -111.379,74.498C-108.132,68.311 -106.928,67.206 -108.12,71.507C-111.34,83.117 -108.008,97.974 -99.155,111.486C-92.06,122.313 -83.383,129.665 -74.756,132.156C-63.279,135.47 -55.197,134.432 -47.513,128.656C-44.642,126.498 -42.787,124.12 -40.635,119.838C-39.12,116.826 -38.819,116.425 -38.501,116.994C-37.951,117.977 -38.783,123.524 -39.9,126.321C-41.585,130.54 -43.545,133.41 -47.412,137.316C-51.579,141.526 -55.042,143.997 -60.255,146.48C-67.331,149.85 -74.256,151.198 -81.631,150.64ZM10.536,142.306C10.631,141.773 10.984,140.146 11.32,138.69C12.721,132.636 11.923,123.561 9.321,115.936C4.686,102.358 -6.03,88.478 -16.367,82.666C-21.161,79.971 -29.304,78.179 -35.518,78.451C-42.115,78.74 -47.173,80.987 -52.004,85.774C-54.192,87.941 -55.034,89.122 -56.659,92.3C-58.459,95.822 -58.665,96.092 -58.884,95.22C-59.271,93.679 -58.455,88.851 -57.304,85.866C-53.07,74.887 -40.518,65.268 -26.568,62.311C-18.173,60.532 -9.754,61.76 -1.099,66.027C15.6,74.259 24.302,91.588 22.066,112.158C20.972,122.226 16.846,134.049 11.484,142.483C10.795,143.567 10.327,143.481 10.536,142.306ZM-64.169,115.861C-70.337,115.008 -76.403,111.559 -81.769,105.855C-87.759,99.487 -91.86,91.396 -93.466,82.775C-94.356,77.998 -94.038,70.454 -92.767,66.195C-88.969,53.468 -81.313,44.247 -70.196,39.008C-55.48,32.073 -35.723,33.568 -17.792,42.974C-11.606,46.219 -10.499,47.425 -14.8,46.232C-24.484,43.547 -35.943,45.276 -47.774,51.206C-59.548,57.108 -70.006,66.787 -73.908,75.394C-75.217,78.282 -76.577,83.533 -77.079,87.646C-77.954,94.805 -76.275,101.085 -71.95,106.839C-69.793,109.708 -67.414,111.565 -63.141,113.713C-60.587,114.997 -59.779,115.556 -60.143,115.786C-60.644,116.104 -62.204,116.132 -64.169,115.861Z" style="fill:rgb(33,29,21);fill-rule:nonzero;"/>
        </g>
    </g>
</svg>
